assets/img/tasses/TasseNoel.svg

<?xml version="1.0" encoding="utf-8"?>
<!-- generated at drububu.com  -->
<!DOCTYPE svg PUBLIC "-//W3C//DTD SVG 1.1//EN" "http://www.w3.org/Graphics/SVG/1.1/DTD/svg11.dtd">
<svg version="1.1" preserveAspectRatio="xMinYMin meet" xmlns="http://www.w3.org/2000/svg" xmlns:xlink="http://www.w3.org/1999/xlink" x="0px" y="0px" width="16px" height="26px" viewBox="0 0 16 26">
<path d="M0 0h8v4h-4v2h-2v4h-2v-10z" fill="rgba(255,255,255,0)"/>
<path d="M8 0h2v2h-2v-2z" fill="rgb(111,72,0)"/>
<path d="M10 0h6v12h-2v-2h-2v-2h-2v-2h-2v-2h2v-4z" fill="rgba(255,255,255,0)"/>
<path d="M8 2h2v2h-2v-2z" fill="rgb(207,111,0)"/>
<path d="M4 4h2v2h-2v-2z" fill="rgb(91,27,27)"/>
<path d="M6 4h2v2h-2v-2z" fill="rgb(207,132,35)"/>
<path d="M2 6h2v2h-2v-2z" fill="rgb(111,50,23)"/>
<path d="M4 6h2v2h-2v-2z" fill="rgb(255,13,0)"/>
<path d="M6 6h2v2h-2v-2z" fill="rgb(159,92,0)"/>
<path d="M8 6h2v2h-2v-2z" fill="rgb(91,27,27)"/>
<path d="M2 8h2v2h-2v-2z" fill="rgb(91,27,27)"/>
<path d="M4 8h2v2h-2v-2z" fill="rgb(255,0,0)"/>
<path d="M6 8h2v2h-2v-2z" fill="rgb(111,72,0)"/>
<path d="M8 8h2v2h-2v-2z" fill="rgb(255,13,0)"/>
<path d="M10 8h2v2h-2v-2z" fill="rgb(111,50,23)"/>
<path d="M0 10h2v2h-2v-2z" fill="rgb(101,38,25)"/>
<path d="M2 10h2v2h-2v-2z" fill="rgb(255,27,0)"/>
<path d="M4 10h2v14h-2v-14z" fill="rgb(255,255,255)"/>
<path d="M6 10h2v2h-2v-2z" fill="rgb(255,0,0)"/>
<path d="M8 10h2v14h-2v-14z" fill="rgb(255,255,255)"/>
<path d="M10 10h2v2h-2v-2z" fill="rgb(255,0,0)"/>
<path d="M12 10h2v2h-2v-2z" fill="rgb(91,27,27)"/>
<path d="M0 12h2v2h-2v-2z" fill="rgb(111,50,23)"/>
<path d="M2 12h2v2h-2v-2z" fill="rgb(255,0,0)"/>
<path d="M6 12h2v2h-2v-2z" fill="rgb(255,27,0)"/>
<path d="M10 12h2v2h-2v-2z" fill="rgb(255,27,0)"/>
<path d="M12 12h2v2h-2v-2z" fill="rgb(223,95,95)"/>
<path d="M14 12h2v2h-2v-2z" fill="rgb(91,27,27)"/>
<path d="M0 14h2v4h-2v-4z" fill="rgb(91,27,27)"/>
<path d="M2 14h2v2h-2v-2z" fill="rgb(255,27,0)"/>
<path d="M6 14h2v2h-2v-2z" fill="rgb(255,0,0)"/>
<path d="M10 14h2v4h-2v-4z" fill="rgb(255,0,0)"/>
<path d="M12 14h2v2h-2v-2z" fill="rgb(225,102,89)"/>
<path d="M14 14h2v2h-2v-2z" fill="rgb(111,50,23)"/>
<path d="M2 16h2v2h-2v-2z" fill="rgb(255,13,0)"/>
<path d="M6 16h2v2h-2v-2z" fill="rgb(255,13,0)"/>
<path d="M12 16h2v2h-2v-2z" fill="rgb(227,110,83)"/>
<path d="M14 16h2v2h-2v-2z" fill="rgb(91,27,27)"/>
<path d="M0 18h2v2h-2v-2z" fill="rgb(111,50,23)"/>
<path d="M2 18h2v2h-2v-2z" fill="rgb(255,0,0)"/>
<path d="M6 18h2v2h-2v-2z" fill="rgb(255,27,0)"/>
<path d="M10 18h2v2h-2v-2z" fill="rgb(255,13,0)"/>
<path d="M12 18h2v4h-2v-4z" fill="rgb(223,95,95)"/>
<path d="M14 18h2v2h-2v-2z" fill="rgb(101,38,25)"/>
<path d="M0 20h2v4h-2v-4z" fill="rgb(91,27,27)"/>
<path d="M2 20h2v2h-2v-2z" fill="rgb(255,13,0)"/>
<path d="M6 20h2v4h-2v-4z" fill="rgb(255,0,0)"/>
<path d="M10 20h2v2h-2v-2z" fill="rgb(255,27,0)"/>
<path d="M14 20h2v2h-2v-2z" fill="rgb(91,27,27)"/>
<path d="M2 22h2v2h-2v-2z" fill="rgb(255,0,0)"/>
<path d="M10 22h2v2h-2v-2z" fill="rgb(255,0,0)"/>
<path d="M12 22h2v2h-2v-2z" fill="rgb(91,27,27)"/>
<path d="M14 22h2v4h-4v-2h2v-2z" fill="rgba(255,255,255,0)"/>
<path d="M0 24h2v2h-2v-2z" fill="rgba(255,255,255,0)"/>
<path d="M2 24h10v2h-10v-2z" fill="rgb(91,27,27)"/>
</svg>

<svg xmlns="http://www.w3.org/2000/svg" width="16" height="26" preserveAspectRatio="xMinYMin meet"><path fill="rgba(255,255,255,0)" d="M0 0h8v4H4v2H2v4H0V0z"/><path fill="#6F4800" d="M8 0h2v2H8V0z"/><path fill="rgba(255,255,255,0)" d="M10 0h6v12h-2v-2h-2V8h-2V6H8V4h2V0z"/><path fill="#CF6F00" d="M8 2h2v2H8V2z"/><path fill="#5B1B1B" d="M4 4h2v2H4V4z"/><path fill="#CF8423" d="M6 4h2v2H6V4z"/><path fill="#6F3217" d="M2 6h2v2H2V6z"/><path fill="#FF0D00" d="M4 6h2v2H4V6z"/><path fill="#9F5C00" d="M6 6h2v2H6V6z"/><path fill="#5B1B1B" d="M8 6h2v2H8V6zM2 8h2v2H2V8z"/><path fill="red" d="M4 8h2v2H4V8z"/><path fill="#6F4800" d="M6 8h2v2H6V8z"/><path fill="#FF0D00" d="M8 8h2v2H8V8z"/><path fill="#6F3217" d="M10 8h2v2h-2V8z"/><path fill="#652619" d="M0 10h2v2H0v-2z"/><path fill="#FF1B00" d="M2 10h2v2H2v-2z"/><path fill="#FFF" d="M4 10h2v14H4V10z"/><path fill="red" d="M6 10h2v2H6v-2z"/><path fill="#FFF" d="M8 10h2v14H8V10z"/><path fill="red" d="M10 10h2v2h-2v-2z"/><path fill="#5B1B1B" d="M12 10h2v2h-2v-2z"/><path fill="#6F3217" d="M0 12h2v2H0v-2z"/><path fill="red" d="M2 12h2v2H2v-2z"/><path fill="#FF1B00" d="M6 12h2v2H6v-2zM10 12h2v2h-2v-2z"/><path fill="#DF5F5F" d="M12 12h2v2h-2v-2z"/><path fill="#5B1B1B" d="M14 12h2v2h-2v-2zM0 14h2v4H0v-4z"/><path fill="#FF1B00" d="M2 14h2v2H2v-2z"/><path fill="red" d="M6 14h2v2H6v-2zM10 14h2v4h-2v-4z"/><path fill="#E16659" d="M12 14h2v2h-2v-2z"/><path fill="#6F3217" d="M14 14h2v2h-2v-2z"/><path fill="#FF0D00" d="M2 16h2v2H2v-2zM6 16h2v2H6v-2z"/><path fill="#E36E53" d="M12 16h2v2h-2v-2z"/><path fill="#5B1B1B" d="M14 16h2v2h-2v-2z"/><path fill="#6F3217" d="M0 18h2v2H0v-2z"/><path fill="red" d="M2 18h2v2H2v-2z"/><path fill="#FF1B00" d="M6 18h2v2H6v-2z"/><path fill="#FF0D00" d="M10 18h2v2h-2v-2z"/><path fill="#DF5F5F" d="M12 18h2v4h-2v-4z"/><path fill="#652619" d="M14 18h2v2h-2v-2z"/><path fill="#5B1B1B" d="M0 20h2v4H0v-4z"/><path fill="#FF0D00" d="M2 20h2v2H2v-2z"/><path fill="red" d="M6 20h2v4H6v-4z"/><path fill="#FF1B00" d="M10 20h2v2h-2v-2z"/><path fill="#5B1B1B" d="M14 20h2v2h-2v-2z"/><path fill="red" d="M2 22h2v2H2v-2zM10 22h2v2h-2v-2z"/><path fill="#5B1B1B" d="M12 22h2v2h-2v-2z"/><path fill="rgba(255,255,255,0)" d="M14 22h2v4h-4v-2h2v-2zM0 24h2v2H0v-2z"/><path fill="#5B1B1B" d="M2 24h10v2H2v-2z"/></svg>
